assets/logistics-color/LogisticsColor15.svg

<svg xmlns="http://www.w3.org/2000/svg" id="Layer_1" x="0" y="0" version="1.1" viewBox="0 0 256 256" xml:space="preserve"><style>.st0{fill:#fff}.st1{fill:#48386a}.st2{fill:#9feaff}</style><path d="M103.5 92.9h109.3v11.4H103.5z" class="st0"/><path d="M212.8 105.3H103.5c-.6 0-1-.4-1-1V92.9c0-.6.4-1 1-1h109.3c.6 0 1 .4 1 1v11.4c0 .5-.5 1-1 1zm-108.3-2h107.3v-9.4H104.5v9.4z" class="st1"/><path d="M107.5 92.9h109.3v11.4H107.5z" class="st2"/><path d="M212.8 105.3H103.5c-.6 0-1-.4-1-1V92.9c0-.6.4-1 1-1h109.3c.6 0 1 .4 1 1v11.4c0 .5-.5 1-1 1zm-108.3-2h107.3v-9.4H104.5v9.4z" class="st1"/><path d="M80.5 142.2v-37.9h155.2v123.4H80.5V148z" class="st0"/><path d="M235.7 228.7H80.5c-.6 0-1-.4-1-1V148c0-.6.4-1 1-1s1 .4 1 1v78.7h153.2V105.3H81.5v37c0 .6-.4 1-1 1s-1-.4-1-1v-38c0-.6.4-1 1-1h155.2c.6 0 1 .4 1 1v123.4c0 .5-.4 1-1 1z" class="st1"/><path d="M143.3 194.6h46v33.1h-57.9v-33.1h6.4z" class="st2"/><path d="M14.4 211.1h66.1v16.5H14.4z" class="st0"/><path d="M80.5 228.7H14.4c-.6 0-1-.4-1-1v-16.5c0-.6.4-1 1-1h66.1c.6 0 1 .4 1 1v16.5c0 .5-.4 1-1 1zm-65.1-2h64.1v-14.5H15.4v14.5z" class="st1"/><path d="M31.8 136.5V77.6h31.3v120.8H31.8v-56.2z" class="st0"/><path d="M63.1 199.4H31.8c-.6 0-1-.4-1-1v-56.2c0-.6.4-1 1-1s1 .4 1 1v55.2h29.3V78.6H32.8v58c0 .6-.4 1-1 1s-1-.4-1-1v-59c0-.6.4-1 1-1h31.3c.6 0 1 .4 1 1v120.8c0 .6-.4 1-1 1z" class="st1"/><path d="M166.3 13.1h29.1v79.7h-29.1z" class="st0"/><path d="M195.4 93.9h-29.1c-.6 0-1-.4-1-1V13.1c0-.6.4-1 1-1h29.1c.6 0 1 .4 1 1v79.7c0 .6-.5 1.1-1 1.1zm-28.1-2h27.1V14.1h-27.1v77.8z" class="st1"/><path d="M144.6 45.9v47h-28.1V29.5h28.1v10.7z" class="st0"/><path d="M144.6 93.9h-28.2c-.6 0-1-.4-1-1V29.5c0-.6.4-1 1-1h28.2c.6 0 1 .4 1 1v10.7c0 .6-.4 1-1 1s-1-.4-1-1v-9.7h-26.2v61.4h26.2v-46c0-.6.4-1 1-1s1 .4 1 1v47c0 .5-.4 1-1 1z" class="st1"/><path d="M161.8 242.9h87.7v-15.2H6.5v15.2H150z" class="st0"/><path d="M249.5 243.9h-87.8c-.6 0-1-.4-1-1s.4-1 1-1h86.8v-13.2H7.5v13.2H150c.6 0 1 .4 1 1s-.4 1-1 1H6.5c-.6 0-1-.4-1-1v-15.2c0-.6.4-1 1-1h243c.6 0 1 .4 1 1v15.2c0 .5-.4 1-1 1z" class="st1"/><path d="M158.3 243.9H155c-.6 0-1-.4-1-1s.4-1 1-1h3.3c.6 0 1 .4 1 1s-.5 1-1 1zM249.5 235.8H31.8c-.3 0-.5-.2-.5-.5s.2-.5.5-.5h217.7c.3 0 .5.2.5.5s-.2.5-.5.5zM23.3 235.8H6.5c-.3 0-.5-.2-.5-.5s.2-.5.5-.5h16.8c.3 0 .5.2.5.5s-.2.5-.5.5zM185.3 211.6h-57.8c-.3 0-.5-.2-.5-.5s.2-.5.5-.5h57.8c.3 0 .5.2.5.5s-.3.5-.5.5zM185.3 203.5h-57.8c-.3 0-.5-.2-.5-.5s.2-.5.5-.5h57.8c.3 0 .5.2.5.5s-.3.5-.5.5zM185.3 219.9h-57.8c-.3 0-.5-.2-.5-.5s.2-.5.5-.5h57.8c.3 0 .5.2.5.5s-.3.5-.5.5zM117.1 219.3h-13.3c-.6 0-1-.4-1-1s.4-1 1-1h12.3v-21.7H94.4v21.7h5.1c.6 0 1 .4 1 1s-.4 1-1 1h-6.1c-.6 0-1-.4-1-1v-23.7c0-.6.4-1 1-1h23.7c.6 0 1 .4 1 1v23.7c0 .6-.5 1-1 1zM221.8 219.3h-23.7c-.6 0-1-.4-1-1v-23.7c0-.6.4-1 1-1h23.7c.6 0 1 .4 1 1v23.7c0 .6-.4 1-1 1zm-22.7-2h21.7v-21.7h-21.7v21.7zM117.1 182H93.4c-.6 0-1-.4-1-1v-23.7c0-.6.4-1 1-1h23.7c.6 0 1 .4 1 1V181c0 .6-.5 1-1 1zm-22.7-2h21.7v-21.7H94.4V180zM221.8 182h-23.7c-.6 0-1-.4-1-1v-23.7c0-.6.4-1 1-1h23.7c.6 0 1 .4 1 1V181c0 .6-.4 1-1 1zm-22.7-2h21.7v-21.7h-21.7V180zM185.3 182h-23.7c-.6 0-1-.4-1-1v-23.7c0-.6.4-1 1-1h23.7c.6 0 1 .4 1 1V181c0 .6-.5 1-1 1zm-22.8-2h21.7v-21.7h-21.7V180zM151.2 182h-23.7c-.6 0-1-.4-1-1v-23.7c0-.6.4-1 1-1h23.7c.6 0 1 .4 1 1V181c0 .6-.5 1-1 1zm-22.8-2h21.7v-21.7h-21.7V180zM117.1 141.3H93.4c-.6 0-1-.4-1-1v-23.7c0-.6.4-1 1-1h8.3c.6 0 1 .4 1 1s-.4 1-1 1h-7.3v21.7h21.7v-21.7H108c-.6 0-1-.4-1-1s.4-1 1-1h9.1c.6 0 1 .4 1 1v23.7c0 .6-.5 1-1 1zM221.8 141.3h-23.7c-.6 0-1-.4-1-1v-23.7c0-.6.4-1 1-1h23.7c.6 0 1 .4 1 1v23.7c0 .6-.4 1-1 1zm-22.7-2h21.7v-21.7h-21.7v21.7zM185.3 141.3h-23.7c-.6 0-1-.4-1-1v-23.7c0-.6.4-1 1-1h23.7c.6 0 1 .4 1 1v7.5c0 .6-.4 1-1 1s-1-.4-1-1v-6.5h-21.7v21.7h21.7v-10.9c0-.6.4-1 1-1s1 .4 1 1v11.9c0 .6-.5 1-1 1zM151.2 141.3h-23.7c-.6 0-1-.4-1-1v-23.7c0-.6.4-1 1-1h23.7c.6 0 1 .4 1 1v23.7c0 .6-.5 1-1 1zm-22.8-2h21.7v-21.7h-21.7v21.7z" class="st1"/><path d="M35.8 151.9h31.3v19H35.8zM35.8 105.1h31.3v19H35.8zM120.5 53h28.2v16.4h-28.2zM170.8 29.5H199v16.4h-28.2zM184.8 61.2h14.1v16.4h-28.1V61.2h8.7z" class="st2"/><path d="M100.4 199.1h16.1v14.7h-16.1z" class="st2" transform="rotate(90 108.492 206.469)"/><path d="M215.6 198.4h5.2v16.1h-16v-16.1h6.3z" class="st2"/><path d="M100.4 161.8h16.1v14.7h-16.1z" class="st2" transform="rotate(90 108.492 169.132)"/><path d="M204.7 161.1h16.1v16h-16.1z" class="st2" transform="rotate(90 212.766 169.132)"/><path d="M168.4 161.3h16.1v15.6h-16.1z" class="st2" transform="rotate(90 176.435 169.132)"/><path d="M134.4 161.6h16.1v15.1h-16.1z" class="st2" transform="rotate(90 142.443 169.132)"/><path d="M100.4 121.1h16.1v14.7h-16.1z" class="st2" transform="rotate(90 108.492 128.475)"/><path d="M204.7 120.5h16.1v16h-16.1z" class="st2" transform="rotate(90 212.766 128.475)"/><path d="M168.4 120.7h16.1v15.6h-16.1z" class="st2" transform="rotate(90 176.435 128.475)"/><path d="M134.4 120.9h16.1V136h-16.1z" class="st2" transform="rotate(90 142.443 128.475)"/><path d="M80.5 219.9H53.3c-.3 0-.5-.2-.5-.5s.2-.5.5-.5h27.3c.3 0 .5.2.5.5s-.3.5-.6.5zM45.5 219.9H14.4c-.3 0-.5-.2-.5-.5s.2-.5.5-.5h31.1c.3 0 .5.2.5.5s-.2.5-.5.5zM185.3 228.7h-57.8c-.6 0-1-.4-1-1v-33.1c0-.6.4-1 1-1h6.3c.6 0 1 .4 1 1s-.4 1-1 1h-5.3v31.1h55.8v-31.1h-45c-.6 0-1-.4-1-1s.4-1 1-1h46c.6 0 1 .4 1 1v33.1c0 .5-.5 1-1 1zM113.3 215H97.2c-.3 0-.5-.2-.5-.5v-16.1c0-.3.2-.5.5-.5h16.1c.3 0 .5.2.5.5v16.1c0 .3-.2.5-.5.5zm-15.6-1h15.1v-15.1H97.7V214zM218 215h-16.1c-.3 0-.5-.2-.5-.5v-16.1c0-.3.2-.5.5-.5h6.4c.3 0 .5.2.5.5s-.2.5-.5.5h-5.9V214h15.1v-15.1h-4.7c-.3 0-.5-.2-.5-.5s.2-.5.5-.5h5.2c.3 0 .5.2.5.5v16.1c0 .3-.2.5-.5.5zM113.3 177.7H97.2c-.3 0-.5-.2-.5-.5v-16.1c0-.3.2-.5.5-.5h16.1c.3 0 .5.2.5.5v16.1c0 .3-.2.5-.5.5zm-15.6-1h15.1v-15.1H97.7v15.1zM218 177.7h-16.1c-.3 0-.5-.2-.5-.5v-16.1c0-.3.2-.5.5-.5H218c.3 0 .5.2.5.5v16.1c0 .3-.2.5-.5.5zm-15.6-1h15.1v-15.1h-15.1v15.1zM181.5 177.7h-16.1c-.3 0-.5-.2-.5-.5v-16.1c0-.3.2-.5.5-.5h16.1c.3 0 .5.2.5.5v16.1c0 .3-.3.5-.5.5zm-15.7-1H181v-15.1h-15.1v15.1zM147.4 177.7h-16.1c-.3 0-.5-.2-.5-.5v-16.1c0-.3.2-.5.5-.5h16.1c.3 0 .5.2.5.5v16.1c0 .3-.2.5-.5.5zm-15.7-1h15.1v-15.1h-15.1v15.1zM113.3 137H97.2c-.3 0-.5-.2-.5-.5v-16.1c0-.3.2-.5.5-.5h16.1c.3 0 .5.2.5.5v16.1c0 .3-.2.5-.5.5zm-15.6-1h15.1v-15.1H97.7V136zM218 137h-16.1c-.3 0-.5-.2-.5-.5v-16.1c0-.3.2-.5.5-.5H218c.3 0 .5.2.5.5v16.1c0 .3-.2.5-.5.5zm-15.6-1h15.1v-15.1h-15.1V136zM181.5 137h-16.1c-.3 0-.5-.2-.5-.5v-16.1c0-.3.2-.5.5-.5h16.1c.3 0 .5.2.5.5v16.1c0 .3-.3.5-.5.5zm-15.7-1H181v-15.1h-15.1V136zM147.4 137h-16.1c-.3 0-.5-.2-.5-.5v-16.1c0-.3.2-.5.5-.5h16.1c.3 0 .5.2.5.5v16.1c0 .3-.2.5-.5.5zm-15.7-1h15.1v-15.1h-15.1V136z" class="st1"/><path d="M25.8 198.4h43.3v12.9H25.8z" class="st0"/><path d="M69.1 212.3H25.8c-.6 0-1-.4-1-1v-12.9c0-.6.4-1 1-1h43.3c.6 0 1 .4 1 1v12.9c0 .5-.4 1-1 1zm-42.3-2h41.3v-10.9H26.8v10.9z" class="st1"/><g><path d="M63.1 171.4H31.8c-.3 0-.5-.2-.5-.5v-19c0-.3.2-.5.5-.5h31.3c.3 0 .5.2.5.5v19c0 .3-.2.5-.5.5zm-30.8-1h30.3v-18H32.3v18zM63.1 124.6H31.8c-.3 0-.5-.2-.5-.5v-19c0-.3.2-.5.5-.5h31.3c.3 0 .5.2.5.5v19c0 .3-.2.5-.5.5zm-30.8-1h30.3v-18H32.3v18z" class="st1"/></g><path d="M29.8 198.4h43.3v12.9H29.8z" class="st2"/><g><path d="M69.1 212.3H25.8c-.6 0-1-.4-1-1v-12.9c0-.6.4-1 1-1h43.3c.6 0 1 .4 1 1v12.9c0 .5-.4 1-1 1zm-42.3-2h41.3v-10.9H26.8v10.9z" class="st1"/></g><g><path d="M63.1 199.4H31.8c-.6 0-1-.4-1-1v-56.2c0-.6.4-1 1-1s1 .4 1 1v55.2h29.3V78.6H32.8v58c0 .6-.4 1-1 1s-1-.4-1-1v-59c0-.6.4-1 1-1h31.3c.6 0 1 .4 1 1v120.8c0 .6-.4 1-1 1z" class="st1"/></g><g><path d="M144.6 69.9h-28.2c-.3 0-.5-.2-.5-.5V53c0-.3.2-.5.5-.5h28.2c.3 0 .5.2.5.5v16.4c0 .3-.2.5-.5.5zm-27.6-1h27.2V53.5H117v15.4z" class="st1"/></g><g><path d="M194.9 46.4h-28.2c-.3 0-.5-.2-.5-.5V29.5c0-.3.2-.5.5-.5h28.2c.3 0 .5.2.5.5v16.4c0 .3-.2.5-.5.5zm-27.6-1h27.2V30h-27.2v15.4z" class="st1"/></g><g><path d="M194.9 78.1h-28.2c-.3 0-.5-.2-.5-.5V61.2c0-.3.2-.5.5-.5h8.7c.3 0 .5.2.5.5s-.2.5-.5.5h-8.2v15.4h27.2V61.7h-13.6c-.3 0-.5-.2-.5-.5s.2-.5.5-.5h14.1c.3 0 .5.2.5.5v16.4c0 .2-.2.5-.5.5z" class="st1"/></g><g><path d="M195.4 93.9h-29.1c-.6 0-1-.4-1-1V13.1c0-.6.4-1 1-1h29.1c.6 0 1 .4 1 1v79.7c0 .6-.5 1.1-1 1.1zm-28.1-2h27.1V14.1h-27.1v77.8z" class="st1"/></g><g><path d="M144.6 93.9h-28.2c-.6 0-1-.4-1-1V29.5c0-.6.4-1 1-1h28.2c.6 0 1 .4 1 1v10.7c0 .6-.4 1-1 1s-1-.4-1-1v-9.7h-26.2v61.4h26.2v-46c0-.6.4-1 1-1s1 .4 1 1v47c0 .5-.4 1-1 1z" class="st1"/></g></svg>

<svg xmlns="http://www.w3.org/2000/svg" id="Layer_1" x="0" y="0" enable-background="new 0 0 256 256" version="1.1" viewBox="0 0 256 256" xml:space="preserve"><style>.st0{fill:#FFFFFF;}
	.st1{fill:#48386A;}
	.st2{fill:#9FEAFF;}</style><path d="M103.5 92.9H212.8V104.30000000000001H103.5z" class="st0"/><path d="M212.8 105.3H103.5c-.6 0-1-.4-1-1V92.9c0-.6.4-1 1-1h109.3c.6 0 1 .4 1 1v11.4c0 .5-.5 1-1 1zm-108.3-2h107.3v-9.4H104.5v9.4z" class="st1"/><path d="M107.5 92.9H216.8V104.30000000000001H107.5z" class="st2"/><path d="M212.8 105.3H103.5c-.6 0-1-.4-1-1V92.9c0-.6.4-1 1-1h109.3c.6 0 1 .4 1 1v11.4c0 .5-.5 1-1 1zm-108.3-2h107.3v-9.4H104.5v9.4z" class="st1"/><path d="M80.5 142.2 80.5 104.3 235.7 104.3 235.7 227.7 80.5 227.7 80.5 148z" class="st0"/><path d="M235.7 228.7H80.5c-.6 0-1-.4-1-1V148c0-.6.4-1 1-1s1 .4 1 1v78.7h153.2V105.3H81.5v37c0 .6-.4 1-1 1s-1-.4-1-1v-38c0-.6.4-1 1-1h155.2c.6 0 1 .4 1 1v123.4c0 .5-.4 1-1 1z" class="st1"/><path d="M143.3 194.6 189.3 194.6 189.3 227.7 131.4 227.7 131.4 194.6 137.8 194.6z" class="st2"/><path d="M14.4 211.1H80.5V227.6H14.4z" class="st0"/><path d="M80.5 228.7H14.4c-.6 0-1-.4-1-1v-16.5c0-.6.4-1 1-1h66.1c.6 0 1 .4 1 1v16.5c0 .5-.4 1-1 1zm-65.1-2h64.1v-14.5H15.4v14.5z" class="st1"/><path d="M31.8 136.5 31.8 77.6 63.1 77.6 63.1 198.4 31.8 198.4 31.8 142.2z" class="st0"/><path d="M63.1 199.4H31.8c-.6 0-1-.4-1-1v-56.2c0-.6.4-1 1-1s1 .4 1 1v55.2h29.3V78.6H32.8v58c0 .6-.4 1-1 1s-1-.4-1-1v-59c0-.6.4-1 1-1h31.3c.6 0 1 .4 1 1v120.8c0 .6-.4 1-1 1z" class="st1"/><path d="M166.3 13.1H195.4V92.8H166.3z" class="st0"/><path d="M195.4 93.9h-29.1c-.6 0-1-.4-1-1V13.1c0-.6.4-1 1-1h29.1c.6 0 1 .4 1 1v79.7c0 .6-.5 1.1-1 1.1zm-28.1-2h27.1V14.1h-27.1v77.8z" class="st1"/><path d="M144.6 45.9 144.6 92.9 116.5 92.9 116.5 29.5 144.6 29.5 144.6 40.2z" class="st0"/><path d="M144.6 93.9h-28.2c-.6 0-1-.4-1-1V29.5c0-.6.4-1 1-1h28.2c.6 0 1 .4 1 1v10.7c0 .6-.4 1-1 1s-1-.4-1-1v-9.7h-26.2v61.4h26.2v-46c0-.6.4-1 1-1s1 .4 1 1v47c0 .5-.4 1-1 1z" class="st1"/><path d="M161.8 242.9 249.5 242.9 249.5 227.7 6.5 227.7 6.5 242.9 150 242.9z" class="st0"/><path d="M249.5 243.9h-87.8c-.6 0-1-.4-1-1s.4-1 1-1h86.8v-13.2H7.5v13.2H150c.6 0 1 .4 1 1s-.4 1-1 1H6.5c-.6 0-1-.4-1-1v-15.2c0-.6.4-1 1-1h243c.6 0 1 .4 1 1v15.2c0 .5-.4 1-1 1z" class="st1"/><path d="M158.3 243.9H155c-.6 0-1-.4-1-1s.4-1 1-1h3.3c.6 0 1 .4 1 1s-.5 1-1 1zM249.5 235.8H31.8c-.3 0-.5-.2-.5-.5s.2-.5.5-.5h217.7c.3 0 .5.2.5.5s-.2.5-.5.5zM23.3 235.8H6.5c-.3 0-.5-.2-.5-.5s.2-.5.5-.5h16.8c.3 0 .5.2.5.5s-.2.5-.5.5zM185.3 211.6h-57.8c-.3 0-.5-.2-.5-.5s.2-.5.5-.5h57.8c.3 0 .5.2.5.5s-.3.5-.5.5zM185.3 203.5h-57.8c-.3 0-.5-.2-.5-.5s.2-.5.5-.5h57.8c.3 0 .5.2.5.5s-.3.5-.5.5zM185.3 219.9h-57.8c-.3 0-.5-.2-.5-.5s.2-.5.5-.5h57.8c.3 0 .5.2.5.5s-.3.5-.5.5zM117.1 219.3h-13.3c-.6 0-1-.4-1-1s.4-1 1-1h12.3v-21.7H94.4v21.7h5.1c.6 0 1 .4 1 1s-.4 1-1 1h-6.1c-.6 0-1-.4-1-1v-23.7c0-.6.4-1 1-1h23.7c.6 0 1 .4 1 1v23.7c0 .6-.5 1-1 1zM221.8 219.3h-23.7c-.6 0-1-.4-1-1v-23.7c0-.6.4-1 1-1h23.7c.6 0 1 .4 1 1v23.7c0 .6-.4 1-1 1zm-22.7-2h21.7v-21.7h-21.7v21.7zM117.1 182H93.4c-.6 0-1-.4-1-1v-23.7c0-.6.4-1 1-1h23.7c.6 0 1 .4 1 1V181c0 .6-.5 1-1 1zm-22.7-2h21.7v-21.7H94.4V180zM221.8 182h-23.7c-.6 0-1-.4-1-1v-23.7c0-.6.4-1 1-1h23.7c.6 0 1 .4 1 1V181c0 .6-.4 1-1 1zm-22.7-2h21.7v-21.7h-21.7V180zM185.3 182h-23.7c-.6 0-1-.4-1-1v-23.7c0-.6.4-1 1-1h23.7c.6 0 1 .4 1 1V181c0 .6-.5 1-1 1zm-22.8-2h21.7v-21.7h-21.7V180zM151.2 182h-23.7c-.6 0-1-.4-1-1v-23.7c0-.6.4-1 1-1h23.7c.6 0 1 .4 1 1V181c0 .6-.5 1-1 1zm-22.8-2h21.7v-21.7h-21.7V180zM117.1 141.3H93.4c-.6 0-1-.4-1-1v-23.7c0-.6.4-1 1-1h8.3c.6 0 1 .4 1 1s-.4 1-1 1h-7.3v21.7h21.7v-21.7H108c-.6 0-1-.4-1-1s.4-1 1-1h9.1c.6 0 1 .4 1 1v23.7c0 .6-.5 1-1 1zM221.8 141.3h-23.7c-.6 0-1-.4-1-1v-23.7c0-.6.4-1 1-1h23.7c.6 0 1 .4 1 1v23.7c0 .6-.4 1-1 1zm-22.7-2h21.7v-21.7h-21.7v21.7zM185.3 141.3h-23.7c-.6 0-1-.4-1-1v-23.7c0-.6.4-1 1-1h23.7c.6 0 1 .4 1 1v7.5c0 .6-.4 1-1 1s-1-.4-1-1v-6.5h-21.7v21.7h21.7v-10.9c0-.6.4-1 1-1s1 .4 1 1v11.9c0 .6-.5 1-1 1zM151.2 141.3h-23.7c-.6 0-1-.4-1-1v-23.7c0-.6.4-1 1-1h23.7c.6 0 1 .4 1 1v23.7c0 .6-.5 1-1 1zm-22.8-2h21.7v-21.7h-21.7v21.7z" class="st1"/><path d="M35.8 151.9H67.1V170.9H35.8z" class="st2"/><path d="M35.8 105.1H67.1V124.1H35.8z" class="st2"/><path d="M120.5 53H148.7V69.4H120.5z" class="st2"/><path d="M170.8 29.5H199V45.9H170.8z" class="st2"/><path d="M184.8 61.2 198.9 61.2 198.9 77.6 170.8 77.6 170.8 61.2 179.5 61.2z" class="st2"/><path d="M100.4 199.1H116.5V213.79999999999998H100.4z" class="st2" transform="rotate(90 108.492 206.469)"/><path d="M215.6 198.4 220.8 198.4 220.8 214.5 204.8 214.5 204.8 198.4 211.1 198.4z" class="st2"/><path d="M100.4 161.8H116.5V176.5H100.4z" class="st2" transform="rotate(90 108.492 169.132)"/><path d="M204.7 161.1H220.79999999999998V177.1H204.7z" class="st2" transform="rotate(90 212.766 169.132)"/><path d="M168.4 161.3H184.5V176.9H168.4z" class="st2" transform="rotate(90 176.435 169.132)"/><path d="M134.4 161.6H150.5V176.7H134.4z" class="st2" transform="rotate(90 142.443 169.132)"/><path d="M100.4 121.1H116.5V135.79999999999998H100.4z" class="st2" transform="rotate(90 108.492 128.475)"/><path d="M204.7 120.5H220.79999999999998V136.5H204.7z" class="st2" transform="rotate(90 212.766 128.475)"/><path d="M168.4 120.7H184.5V136.3H168.4z" class="st2" transform="rotate(90 176.435 128.475)"/><path d="M134.4 120.9H150.5V136H134.4z" class="st2" transform="rotate(90 142.443 128.475)"/><path d="M80.5 219.9H53.3c-.3 0-.5-.2-.5-.5s.2-.5.5-.5h27.3c.3 0 .5.2.5.5s-.3.5-.6.5zM45.5 219.9H14.4c-.3 0-.5-.2-.5-.5s.2-.5.5-.5h31.1c.3 0 .5.2.5.5s-.2.5-.5.5zM185.3 228.7h-57.8c-.6 0-1-.4-1-1v-33.1c0-.6.4-1 1-1h6.3c.6 0 1 .4 1 1s-.4 1-1 1h-5.3v31.1h55.8v-31.1h-45c-.6 0-1-.4-1-1s.4-1 1-1h46c.6 0 1 .4 1 1v33.1c0 .5-.5 1-1 1zM113.3 215H97.2c-.3 0-.5-.2-.5-.5v-16.1c0-.3.2-.5.5-.5h16.1c.3 0 .5.2.5.5v16.1c0 .3-.2.5-.5.5zm-15.6-1h15.1v-15.1H97.7V214zM218 215h-16.1c-.3 0-.5-.2-.5-.5v-16.1c0-.3.2-.5.5-.5h6.4c.3 0 .5.2.5.5s-.2.5-.5.5h-5.9V214h15.1v-15.1h-4.7c-.3 0-.5-.2-.5-.5s.2-.5.5-.5h5.2c.3 0 .5.2.5.5v16.1c0 .3-.2.5-.5.5zM113.3 177.7H97.2c-.3 0-.5-.2-.5-.5v-16.1c0-.3.2-.5.5-.5h16.1c.3 0 .5.2.5.5v16.1c0 .3-.2.5-.5.5zm-15.6-1h15.1v-15.1H97.7v15.1zM218 177.7h-16.1c-.3 0-.5-.2-.5-.5v-16.1c0-.3.2-.5.5-.5H218c.3 0 .5.2.5.5v16.1c0 .3-.2.5-.5.5zm-15.6-1h15.1v-15.1h-15.1v15.1zM181.5 177.7h-16.1c-.3 0-.5-.2-.5-.5v-16.1c0-.3.2-.5.5-.5h16.1c.3 0 .5.2.5.5v16.1c0 .3-.3.5-.5.5zm-15.7-1H181v-15.1h-15.1v15.1zM147.4 177.7h-16.1c-.3 0-.5-.2-.5-.5v-16.1c0-.3.2-.5.5-.5h16.1c.3 0 .5.2.5.5v16.1c0 .3-.2.5-.5.5zm-15.7-1h15.1v-15.1h-15.1v15.1zM113.3 137H97.2c-.3 0-.5-.2-.5-.5v-16.1c0-.3.2-.5.5-.5h16.1c.3 0 .5.2.5.5v16.1c0 .3-.2.5-.5.5zm-15.6-1h15.1v-15.1H97.7V136zM218 137h-16.1c-.3 0-.5-.2-.5-.5v-16.1c0-.3.2-.5.5-.5H218c.3 0 .5.2.5.5v16.1c0 .3-.2.5-.5.5zm-15.6-1h15.1v-15.1h-15.1V136zM181.5 137h-16.1c-.3 0-.5-.2-.5-.5v-16.1c0-.3.2-.5.5-.5h16.1c.3 0 .5.2.5.5v16.1c0 .3-.3.5-.5.5zm-15.7-1H181v-15.1h-15.1V136zM147.4 137h-16.1c-.3 0-.5-.2-.5-.5v-16.1c0-.3.2-.5.5-.5h16.1c.3 0 .5.2.5.5v16.1c0 .3-.2.5-.5.5zm-15.7-1h15.1v-15.1h-15.1V136z" class="st1"/><path d="M25.8 198.4H69.1V211.3H25.8z" class="st0"/><path d="M69.1 212.3H25.8c-.6 0-1-.4-1-1v-12.9c0-.6.4-1 1-1h43.3c.6 0 1 .4 1 1v12.9c0 .5-.4 1-1 1zm-42.3-2h41.3v-10.9H26.8v10.9z" class="st1"/><g><path d="M63.1 171.4H31.8c-.3 0-.5-.2-.5-.5v-19c0-.3.2-.5.5-.5h31.3c.3 0 .5.2.5.5v19c0 .3-.2.5-.5.5zm-30.8-1h30.3v-18H32.3v18zM63.1 124.6H31.8c-.3 0-.5-.2-.5-.5v-19c0-.3.2-.5.5-.5h31.3c.3 0 .5.2.5.5v19c0 .3-.2.5-.5.5zm-30.8-1h30.3v-18H32.3v18z" class="st1"/></g><path d="M29.8 198.4H73.1V211.3H29.8z" class="st2"/><g><path d="M69.1 212.3H25.8c-.6 0-1-.4-1-1v-12.9c0-.6.4-1 1-1h43.3c.6 0 1 .4 1 1v12.9c0 .5-.4 1-1 1zm-42.3-2h41.3v-10.9H26.8v10.9z" class="st1"/></g><g><path d="M63.1 199.4H31.8c-.6 0-1-.4-1-1v-56.2c0-.6.4-1 1-1s1 .4 1 1v55.2h29.3V78.6H32.8v58c0 .6-.4 1-1 1s-1-.4-1-1v-59c0-.6.4-1 1-1h31.3c.6 0 1 .4 1 1v120.8c0 .6-.4 1-1 1z" class="st1"/></g><g><path d="M144.6 69.9h-28.2c-.3 0-.5-.2-.5-.5V53c0-.3.2-.5.5-.5h28.2c.3 0 .5.2.5.5v16.4c0 .3-.2.5-.5.5zm-27.6-1h27.2V53.5H117v15.4z" class="st1"/></g><g><path d="M194.9 46.4h-28.2c-.3 0-.5-.2-.5-.5V29.5c0-.3.2-.5.5-.5h28.2c.3 0 .5.2.5.5v16.4c0 .3-.2.5-.5.5zm-27.6-1h27.2V30h-27.2v15.4z" class="st1"/></g><g><path d="M194.9 78.1h-28.2c-.3 0-.5-.2-.5-.5V61.2c0-.3.2-.5.5-.5h8.7c.3 0 .5.2.5.5s-.2.5-.5.5h-8.2v15.4h27.2V61.7h-13.6c-.3 0-.5-.2-.5-.5s.2-.5.5-.5h14.1c.3 0 .5.2.5.5v16.4c0 .2-.2.5-.5.5z" class="st1"/></g><g><path d="M195.4 93.9h-29.1c-.6 0-1-.4-1-1V13.1c0-.6.4-1 1-1h29.1c.6 0 1 .4 1 1v79.7c0 .6-.5 1.1-1 1.1zm-28.1-2h27.1V14.1h-27.1v77.8z" class="st1"/></g><g><path d="M144.6 93.9h-28.2c-.6 0-1-.4-1-1V29.5c0-.6.4-1 1-1h28.2c.6 0 1 .4 1 1v10.7c0 .6-.4 1-1 1s-1-.4-1-1v-9.7h-26.2v61.4h26.2v-46c0-.6.4-1 1-1s1 .4 1 1v47c0 .5-.4 1-1 1z" class="st1"/></g></svg>
